X: 34545
T: Rince Philib A'Cheoil
R: slip jig
M: 9/8
K: Gmajor
G2 A B2 G c2A|d2 B cAG F3|G2A B2G c2A|d2B cAF G3|
A2A A2G F2D|A2A A2G F3|A2A A2G F2D|d2B cAF G3|

